!!!!SEGMENT: pl-lzu--m-15111--001-026_noskowski-zygmunt--spiewnik-dla-dzieci-op-34-26-cichy-wieczor.krn
!!!cenid: 18xx:4723
!!!COM: Noskowski, Zygmunt
!!!COM-rismID: pe106604
!!!CDT: 1846/05/02-1909/07/23
!!!CNT: Polish
!!!GTL: Śpiewnik dla dzieci, op. 34
!!!OTL: 26. Cichy wieczór
!!!OMV: 026
!!!PDT: 1890
!!!AGN: Secular; Song; Children
!!!YEC: Copyright 2022 Narodowy Instytut Fryderyka Chopina (https://polishscores.org)
!!!YEM: License CC-BY-4.0 (https://creativecommons.org/licenses/by/4.0)
!!!SMS-siglum: PL-LŹu
!!!SMS-shelfmark: M 15111
!!!SMS-variant:
!!!SMS-altvar:
!!!SMS-shelfwork: 001-026 G
!!!NIFC-rismSourceID: 1001234040
!!!NIFC-rismChildID: 1001234040
!!!NIFC-islandoraID: pl-lzu:5455
!!!URL-pdf-islandora: https://repozytorium.nifc.pl/islandora/object/pl-lzu%3A5455/datastream/PDF/view
!!!URL-scan: https://polish.musicsources.pl/pl/lokalizacje/galeria/druki-muzyczne/23228/34 @EN{Scan on Polish Music Sources Website} @PL{Skany w portalu Dziedzictwo Muzyki Polskiej w otwartym dostępie}
!!!IIIF:
!!!ONB-nifc:
!!!AIN: 1 piano 1 vox
!!!key: D-
!!!OMD: Andante spianato, con delicatezza.
**kern	**kern	**dynam	**kern	**text	**text	**dynam
*part2	*part2	*part2	*part1	*part1	*part1	*part1
*staff3	*staff2	*staff2/3	*staff1	*staff1	*staff1	*staff1
*I"[Piano]	*I"[Piano]	*	*I"[Voice]	*	*	*
*I'pf	*I'pf	*	*I'V	*	*	*
*Ipiano	*Ipiano	*	*Ivox	*	*	*
*ICklav	*ICklav	*	*ICvox	*	*	*
*IGacmp	*IGacmp	*	*IGsolo	*	*	*
*>[A,B,B,C]	*>[A,B,B,C]	*>[A,B,B,C]	*>[A,B,B,C]	*>[A,B,B,C]	*>[A,B,B,C]	*>[A,B,B,C]
*>A	*>A	*>A	*>A	*>A	*>A	*>A
*cleIfF4	*clefG2	*	*clefG2	*	*	*
*k[b-e-a-d-g-]	*k[b-e-a-d-g-]	*	*k[b-e-a-d-g-]	*	*	*
*D-:	*D-:	*	*D-:	*	*	*
*M3/8	*M3/8	*	*M3/8	*	*	*
=1	=1	=1	=1	=1	=1	=1
*ped	*	*	*	*	*	*
!	!LO:TX:a:i:t=Zwolna i marząco.	!LO:DY:rj	!	!	!	!
8r	16aa-LL 16a-\	pp <	4.r	.	.	.
.	16aa- 16a-\	.	.	.	.	.
8r	16aa- 16a-\	.	.	.	.	.
.	16aa- 16a-\	.	.	.	.	.
8f 8d-\	16aa- 16ff 16a-\	.	.	.	.	.
.	16aa-JJ 16a-\	[	.	.	.	.
=2!|:	=2!|:	=2!|:	=2!|:	=2!|:	=2!|:	=2!|:
*>B	*>B	*>B	*>B	*>B	*>B	*>B
8f 8d-\	16aa-LL 16ff 16a-\	.	4.r	.	.	.
.	16aa- 16a-\	.	.	.	.	.
8r	16aa- 16a-\	.	.	.	.	.
.	16aa- 16a-\	.	.	.	.	.
8A- 8D-\	16aa- 16ff 16a-\	.	.	.	.	.
.	16aa-JJ 16ff 16a-\	.	.	.	.	.
=3	=3	=3	=3	=3	=3	=3
*	*	*	*	*v:1	*v:2	*
4.AA- 4.DD-/	16aa-LL 16ff 16a-\	.	16a-/	Ci-	Si-	p
.	16aa- 16ff 16a-\	.	16a-/	-chy	-wy	.
.	16aa- 16ff 16dd-\	>	16dd-\	wie-	ko-	.
.	16aa- 16ff 16dd-\	.	16dd-\	-czór	-nik	.
.	16aa- 16ff 16b-\	.	16b-\	już	rży	.
*Xped	*	*	*	*	*	*
.	16aa-JJ 16ff 16dd-\	]	16dd-\	za-	po	.
=4	=4	=4	=4	=4	=4	=4
*ped	*	*	*	*	*	*
4.e- 4.A-\	16aa-LL 16gg- 16cc\	.	8cc\	-pa-	łą-	.
.	16aa- 16gg- 16cc\	.	.	.	.	.
.	16aa- 16gg- 16a-\	.	4a-/	-da,	-ce,	.
.	16aa- 16gg- 16a-\	.	.	.	.	.
.	16aa- 16gg- 16a-\	.	.	.	.	.
*Xped	*	*	*	*	*	*
.	16aa-JJ 16gg- 16a-\	.	.	.	.	.
!!LO:PB:g=original
=5	=5	=5	=5	=5	=5	=5
*ped	*	*	*	*v:1	*v:2	*
4.GG- 4.DD-/	16bb-LL 16gg- 16b-\	.	16b-\	Zga-	Roz-	.
.	16bb- 16gg- 16cc\	.	16cc\	-śnie	-legł	.
.	16bb- 16gg- 16ee-\	.	8ee-\	zo-	tam	.
.	16bb- 16gg- 16ee-\	.	.	.	.	.
*Xped	*	*	*	*	*	*
.	16bb- 16gg- 16dd-\	.	(16dd-\LL	-rza	się	.
.	16bb-JJ 16gg- 16b-\	.	16b-\JJ)	.	.	.
=6	=6	=6	=6	=6	=6	=6
*ped	*	*	*	*	*	*
4.A- 4.D-\	16aa-LL 16ff 16dd-\	.	4.dd-\	wnet,	głos,	.
.	16aa- 16ff 16dd-\	.	.	.	.	.
.	16aa- 16ff 16dd-\	.	.	.	.	.
.	16aa- 16ff 16dd-\	.	.	.	.	.
.	16aa- 16ff 16dd-\	.	.	.	.	.
*Xped	*	*	*	*	*	*
.	16aa-JJ 16ff 16dd-\	.	.	.	.	.
=7	=7	=7	=7	=7	=7	=7
*ped	*	*	*	*	*	*
4.C 4.FF/	16aa-LL 16ff 16cc\	.	16cc\	A	Le-	.
.	16aa- 16ff 16dd-\	.	16dd-\	pod	-ci	.
.	16aa- 16ff 16cc\	.	16cc\	la-	e-	.
.	16aa- 16ff 16a-\	.	16a-/	-sem	-cho	.
*Xped	*	*	*	*	*	*
.	16ggn 16een 16b-\	.	16b-/	pod	od	.
.	16ggJJ 16ee 16gn\	.	16gn/	ol-	ol-	.
!!LO:LB:g=original
=8	=8	=8	=8	=8	=8	=8
*ped	*	*	*	*v:1	*v:2	*
4c 4F\	16aa-LL 16ff 16cc\	.	8cc\	-szo-	-szy-	.
.	16aa-JJ 16ff 16cc\	.	.	.	.	.
.	16ccLL 16a- 16f/	.	4f/	-wym	-ny	.
.	16cc 16a- 16f/	.	.	.	.	.
*Xped	*	*	*	*	*	*
8FF/	16ddn 16a- 16f/	.	.	.	.	.
.	16ddJJ 16a- 16f/	.	.	.	.	.
*ped	*	*	*	*	*	*
=9	=9	=9	=9	=9	=9	=9
8EE-/	16ee-XLL 16cc 16a-\	.	16a-/	Sły-	Po-	.
.	16ee- 16cc 16a-\	.	16a-/	-chać	-lem	.
4E-\	16ee- 16dd- 16b-\	.	8b-/	rże-	peł-	.
.	16ee- 16dd- 16b-\	.	.	.	.	.
*Xped	*	*	*	*	*	*
.	16ee- 16dd- 16f\	.	(16f/LL	-nie	-nem	.
.	16ee-JJ 16dd- 16e-\	.	16e-/JJ)	.	.	.
=10	=10	=10	=10	=10	=10	=10
*ped	*	*	*	*	*	*
4E- 4AA-/	16ee-LL 16cc\	.	4cc\	het!	ros.	.
.	16ee- 16cc\	.	.	.	.	.
.	16aa- 16ee- 16cc\	.	.	.	.	.
.	16ggn 16ee- 16cc\	.	.	.	.	.
8r	16bb- 16ee- 16cc\	.	8r	.	.	.
.	16aa-JJ 16ee- 16cc\	.	.	.	.	.
*ped	*	*	*	*	*	*
=11	=11	=11	=11	=11	=11	=11
4.AA- 4.AAA-/	16gg-XLL 16dd- 16b-\	.	16b-/	Si-	A	.
.	16gg- 16dd- 16b-\	.	16b-/	-wy	mie-	.
.	16gg- 16dd- 16b-\	.	8.b-/	ko-	-sią-	.
.	16gg- 16dd- 16b-\	.	.	.	.	.
.	16gg- 16dd- 16b-\	.	.	.	.	.
*Xped	*	*	*	*	*	*
.	16gg-JJ 16dd- 16b-\	.	16b-/	-nik	-czek	.
!!LO:LB:g=original
=12	=12	=12	=12	=12	=12	=12
*ped	*	*	*	*v:1	*v:2	*
4.A- 4.AA-\	16gg-LL 16ee- 16dd-\	.	16dd-\	tam	ci-	.
.	16gg- 16ee- 16cc\	.	16cc\	się	-cho	.
.	16gg- 16dd- 16b-\	.	8b-/	pa-	wsta-	.
.	16gg- 16dd- 16b-\	.	.	.	.	.
*Xped	*	*	*	*	*	*
.	16gg- 16cc 16a-\	.	8a-/	-sie,	-je,	.
.	16gg-JJ 16cc 16a-\	.	.	.	.	.
*ped	*	*	*	*	*	*
=13	=13	=13	=13	=13	=13	=13
4.D- 4.DD-/	16ffLL 16dd- 16a-\	.	16a-/	Si-	Li-	.
.	16ff 16dd- 16a-\	.	16a-/	-wy	-pa	.
.	16ff 16dd- 16b-\	.	8b-/	ko-	sy-	.
.	16ff 16dd- 16b-\	.	.	.	.	.
*Xped	*	*	*	*	*	*
.	16ff 16dd- 16f\	.	(16f/LL	-nik	-pie	.
.	16ffJJ 16dd- 16g-\	.	16g-/JJ)	.	.	.
*ped	*	*	*	*	*	*
=14	=14	=14	=14	=14	=14	=14
4.AA- 4.AAA-/	16ee-LL 16cc 16a-\	.	(8a-/	mój.	kwiat.	.
.	16ee- 16cc 16a-\	.	.	.	.	.
.	16ee- 16cc 16e-\	.	4e-/)	.	.	.
.	16ee- 16cc 16e-\	.	.	.	.	.
*Xped	*	*	*	*	*	*
.	16ee- 16cc 16g-\	.	.	.	.	.
.	16ee-JJ 16cc 16g-\	.	.	.	.	.
!!LO:PB:g=original
=15	=15	=15	=15	=15	=15	=15
*ped	*	*	*	*v:1	*v:2	*
(4DD-/	16ee-LL 16cc-X 16f\	.	16f/	Jest	Cu-	.
.	16dd- 16cc- 16f\	<	16f/	tam	-dnaż,	<
.	16gg- 16dd- 16b-\	.	16b-/	łącz-	cu-	.
.	16gg- 16dd- 16b-\	.	16b-/	-ka	-dna	.
16GG-/LL	16gg- 16dd- 16a-\	[	16a-/	z dro-	noc	[
*Xped	*	*	*	*	*	*
16BB-/JJ)	16gg-JJ 16dd- 16g-\	.	16g-/	-bną	ta	.
=16	=16	=16	=16	=16	=16	=16
*ped	*	*	*	*	*	*
4.E-\	16gg-LL 16dd- 16ccn\	.	8cc\	traw-	le-	mf
.	16gg- 16dd- 16cc\	.	.	.	.	.
.	16gg- 16dd- 16b-\	.	4b-\	-ką,	-tnia,	.
.	16gg- 16dd- 16b-\	.	.	.	.	.
.	16bb- 16gg- 16dd-\	.	.	.	.	.
*Xped	*	*	*	*	*	*
.	16bb-JJ 16gg- 16dd-\	.	.	.	.	.
=17	=17	=17	=17	=17	=17	=17
*ped	*	*	*	*	*	*
4A- 4AA-/	16aa-LL 16ff 16dd-\	.	16dd-\	Jest	Cu-	.
.	16aa- 16ff 16dd-\	.	16dd-\	kry-	-dny	.
*Xped	*	*	*	*	*	*
.	16aa- 16gg- 16ee-\	>	8ee-\	-ni-	jest	>
.	16aa- 16gg- 16ee-\	.	.	.	.	.
8AA-/	16aa- 16gg- 16b-\	]	(16b-/LL	-czny	nasz	]
.	16aa-JJ 16gg- 16a-\	.	16a-/JJ)	.	.	.
!!LO:LB:g=original
=18	=18	=18	=18	=18	=18	=18
*ped	*	*	*	*v:1	*v:2	*
!	!	!LO:DY:rj	!	!	!	!LO:DY:rj
[4.AA- [4.DD-/	16aa-LL 16ff 16dd-\	p	[4.ff\	zdrój!	świat!	p
.	16aa- 16ff 16dd-\	.	.	.	.	.
.	16ddd- 16aa- 16ff\	.	.	.	.	.
.	16ccc 16aa- 16ff\	.	.	.	.	.
.	16eee- 16aa- 16ff\	.	.	.	.	.
.	16ddd-JJ 16aa- 16ff\	.	.	.	.	.
=19	=19	=19	=19	=19	=19	=19
4.AA-_ 4.DD-/_	16ffLL 16dd- 16a-\	.	4.ff\_	.	.	.
.	16bb- 16ff 16dd-\	.	.	.	.	.
.	16aa- 16ff 16dd-\	.	.	.	.	.
.	16dd- 16a- 16f\	.	.	.	.	.
.	16ff 16dd- 16a-\	.	.	.	.	.
.	16dd-JJ 16a- 16f\	.	.	.	.	.
=20	=20	=20	=20	=20	=20	=20
8AA-] 8DD-/]	16aa-LL 16a-\	.	4ff\]	.	.	.
.	16aa- 16a-\	.	.	.	.	.
8r	16aa- 16a-\	.	.	.	.	.
.	16aa- 16a-\	.	.	.	.	.
8A- 8D-\	16aa- 16ff 16a-\	.	8r	.	.	.
.	16aa-JJ 16a-\	.	.	.	.	.
=21:|!	=21:|!	=21:|!	=21:|!	=21:|!	=21:|!	=21:|!
*>C	*>C	*>C	*>C	*>C	*>C	*>C
4.AA- 4.DD-;/	4.ff: 4.dd-: 4.a-: 4.f:;\	.	4.r;	.	.	.
==	==	==	==	==	==	==
*-	*-	*-	*-	*-	*-	*-
!!!system-decoration: p1{p2}
!!!RDF**kern: > = above
!!!RDF**kern: < = below
!!!ENC: Andrzej Gręziak
!!!END: 2025-03-05
!!!ENC: Marta Lawrence
!!!END: 2025-03-22
